X:16
T:Ace of Spades
C:Benny Thomasson
N:Arranged by Mike Stangeland
R:bluegrass
L:1/8
Q:1/4=218
M:4/4
K:A
eg | "A"a2 g2 a2 e=g | "D"f/=g/f df "A"ec Ac | "E"BA GF EG BG | "A"Ac BG Ac eg | 
|ag bg a (3gfe =g | "D"fe df "A"ec Ac | "E"BA GF ED CB, | "A"A,C EF A2 eg |
| ag bg a/g/f e=g | "D"fe df "A"ec Ac | "E"BA GF EG BG | "A"Ac BG Ac eg |
| ag bg a2 e=g | "D"f (3=gfd f "A"ec Ac | "E"BA GF ED CB, | "A"A,C EF [e4A4] |
|: "A"[c2A2E2] z2 z2 BA | "D"[d2A2F2] z2 z2 cB | "E"GA Bc de fg |1 "A"ag bg af ed :|2 "A"ag bg a4 |]
| a"A"g bg a2 ef | "E"gf gf ef ec | |Bc BA GF EG | "A"F=F ^FG AF ^DF |
| "E"EB, EF GB ef | gb fg ef ce | Bc BA GF EG | "A"F=F ^FG AF ^DF | 
|"E"E2 G2 E2 eg | be gb f/g/f ec | Bc BA GF EG | "A"F=F ^FG AF ^DF | 
|"E"EB, EF GB ef | gb fg ef ce | Bc BA GF EG | "A"F=F ^FG AF ^DF | "E"EFDF D4 | 
|: "E"GB eB Bf BB | gB Ba BB ge | "A"bg ec af ^dB |1 e"E"b g/b/g ec BA :|2 e"E"b g/b/g e4 |] 
|"A"ea ea fe ae | "D"ea ec "A"ae cA | "E"BA GF EG BG | "A"Ac BG Ac eg |
| ag bg a/g/f e=g | "D"fe df "A"ec Ac | "E"BA GF ED CB, | "A"A,C EF A4 | 

